flaticon/sport/surf-1.svg

<svg xmlns="http://www.w3.org/2000/svg" width="32" height="32" viewBox="0 0 24 24">
    <path d="M 20.289062 20.9375 C 20.136719 20.640625 19.894531 20.292969 19.566406 19.964844 C 19.5625 19.960938 19.558594 19.957031 19.550781 19.949219 C 19.527344 19.925781 19.503906 19.90625 19.480469 19.882812 C 19.085938 19.5 18.554688 19.128906 17.871094 18.957031 C 17.523438 18.867188 17.160156 18.84375 16.789062 18.871094 C 16.769531 18.875 16.75 18.871094 16.730469 18.875 C 16.597656 18.292969 16.414062 17.675781 16.195312 17.035156 C 17.003906 16.105469 17.785156 15.121094 18.511719 14.113281 C 22.367188 8.753906 25.148438 2.113281 22.714844 0.363281 C 21.621094 -0.421875 19.832031 0.0664062 17.535156 1.78125 C 15.570312 3.25 13.449219 5.472656 11.496094 8.078125 C 11.496094 8.078125 11.492188 8.078125 11.492188 8.074219 C 11.359375 7.886719 11.222656 7.699219 11.085938 7.511719 C 9.707031 5.617188 8.261719 3.976562 6.871094 2.742188 L 6.722656 2.609375 L 6.703125 2.613281 C 4.632812 0.8125 2.679688 -0.09375 1.417969 0.707031 C 0.277344 1.429688 0.0664062 3.273438 0.800781 6.042969 C 0.820312 6.128906 0.851562 6.21875 0.878906 6.308594 L 0.875 6.316406 L 0.929688 6.511719 C 0.960938 6.621094 1 6.734375 1.035156 6.847656 C 1.066406 6.941406 1.09375 7.035156 1.125 7.132812 C 1.21875 7.414062 1.316406 7.699219 1.421875 7.988281 C 1.445312 8.054688 1.472656 8.121094 1.496094 8.1875 C 1.59375 8.445312 1.699219 8.703125 1.808594 8.96875 C 1.859375 9.09375 1.914062 9.222656 1.96875 9.351562 C 2.054688 9.546875 2.140625 9.742188 2.230469 9.941406 C 2.292969 10.078125 2.355469 10.214844 2.417969 10.351562 C 2.527344 10.578125 2.636719 10.808594 2.75 11.035156 C 2.835938 11.203125 2.917969 11.371094 3.007812 11.539062 C 3.132812 11.78125 3.257812 12.023438 3.390625 12.269531 C 3.46875 12.410156 3.546875 12.554688 3.628906 12.695312 C 3.6875 12.804688 3.746094 12.910156 3.804688 13.015625 L 4.230469 13.765625 L 4.238281 13.75 C 4.421875 14.0625 4.609375 14.371094 4.804688 14.679688 C 5.34375 15.527344 5.914062 16.351562 6.496094 17.140625 C 5.683594 19.601562 5.628906 21.617188 6.816406 22.472656 C 7.164062 22.722656 7.578125 22.839844 8.039062 22.839844 C 8.832031 22.839844 9.769531 22.484375 10.78125 21.878906 C 12.40625 23.269531 13.832031 24 14.925781 24 C 15.328125 24 15.683594 23.902344 15.992188 23.707031 C 16.632812 23.300781 16.980469 22.535156 17.023438 21.429688 C 17.035156 21.425781 17.046875 21.417969 17.058594 21.414062 C 17.082031 21.40625 17.105469 21.402344 17.128906 21.394531 C 17.199219 21.371094 17.273438 21.351562 17.34375 21.332031 C 17.394531 21.320312 17.441406 21.3125 17.488281 21.304688 C 17.523438 21.296875 17.558594 21.292969 17.59375 21.285156 C 18.730469 21.117188 19.675781 21.625 19.699219 21.636719 C 19.71875 21.648438 19.742188 21.652344 19.765625 21.660156 C 19.882812 21.703125 20.007812 21.703125 20.117188 21.652344 C 20.125 21.648438 20.128906 21.644531 20.136719 21.640625 C 20.171875 21.621094 20.207031 21.601562 20.238281 21.570312 C 20.386719 21.433594 20.425781 21.214844 20.339844 21.035156 C 20.335938 21.027344 20.320312 20.992188 20.289062 20.9375 Z M 1.546875 5.199219 C 1.121094 3.277344 1.25 1.90625 1.910156 1.488281 C 2.074219 1.382812 2.277344 1.332031 2.511719 1.332031 C 3.222656 1.332031 4.242188 1.8125 5.4375 2.738281 L 2.871094 3 Z M 4.1875 11.796875 C 4.046875 11.542969 3.910156 11.285156 3.78125 11.03125 C 3.71875 10.910156 3.65625 10.785156 3.597656 10.664062 C 3.496094 10.460938 3.398438 10.261719 3.304688 10.0625 C 3.25 9.953125 3.199219 9.839844 3.148438 9.730469 C 3.019531 9.457031 2.902344 9.183594 2.785156 8.914062 C 2.738281 8.804688 2.695312 8.699219 2.652344 8.589844 C 2.554688 8.359375 2.464844 8.128906 2.375 7.898438 C 2.351562 7.835938 2.324219 7.769531 2.300781 7.707031 C 2.199219 7.425781 2.105469 7.152344 2.015625 6.878906 C 1.988281 6.796875 1.960938 6.71875 1.9375 6.640625 C 1.914062 6.570312 1.898438 6.503906 1.878906 6.4375 L 3.421875 3.871094 L 6.410156 3.570312 C 7.679688 4.722656 9 6.222656 10.265625 7.949219 L 6.070312 8.050781 Z M 5.585938 14.183594 C 5.285156 13.710938 5.003906 13.242188 4.730469 12.769531 L 6.644531 8.960938 L 10.910156 8.855469 C 10.914062 8.859375 10.914062 8.859375 10.917969 8.863281 C 10.894531 8.894531 10.875 8.921875 10.855469 8.953125 C 10.679688 9.203125 10.503906 9.453125 10.332031 9.707031 C 10.269531 9.800781 10.210938 9.890625 10.148438 9.984375 C 10.046875 10.136719 9.945312 10.292969 9.84375 10.445312 C 9.679688 10.699219 9.523438 10.953125 9.367188 11.207031 C 9.34375 11.246094 9.316406 11.289062 9.292969 11.328125 C 8.78125 12.164062 8.320312 12.996094 7.910156 13.808594 C 7.859375 13.902344 7.8125 14 7.765625 14.09375 C 7.707031 14.21875 7.644531 14.34375 7.585938 14.464844 C 7.46875 14.710938 7.359375 14.953125 7.253906 15.195312 C 7.242188 15.222656 7.226562 15.25 7.214844 15.277344 C 7.09375 15.554688 6.980469 15.828125 6.875 16.097656 C 6.433594 15.480469 6 14.839844 5.585938 14.183594 Z M 11.296875 20.417969 C 11.183594 20.5 11.070312 20.578125 10.957031 20.65625 C 10.851562 20.730469 10.746094 20.800781 10.640625 20.867188 C 9.144531 21.835938 7.957031 22.15625 7.355469 21.722656 C 6.613281 21.1875 6.667969 19.460938 7.503906 17.070312 C 7.585938 16.835938 7.671875 16.601562 7.765625 16.359375 C 7.800781 16.277344 7.835938 16.191406 7.871094 16.105469 C 7.964844 15.882812 8.058594 15.65625 8.160156 15.425781 C 8.203125 15.328125 8.25 15.230469 8.296875 15.132812 C 8.398438 14.90625 8.503906 14.679688 8.617188 14.449219 C 8.667969 14.347656 8.722656 14.242188 8.777344 14.136719 C 8.894531 13.90625 9.011719 13.675781 9.136719 13.445312 C 9.195312 13.335938 9.257812 13.226562 9.320312 13.117188 C 9.449219 12.886719 9.578125 12.652344 9.714844 12.417969 C 9.785156 12.296875 9.863281 12.171875 9.9375 12.046875 C 10.070312 11.824219 10.203125 11.605469 10.34375 11.382812 C 10.445312 11.214844 10.558594 11.042969 10.671875 10.875 C 10.789062 10.695312 10.902344 10.511719 11.023438 10.332031 C 11.261719 9.976562 11.507812 9.621094 11.769531 9.261719 C 13.792969 6.445312 16.039062 4.054688 18.085938 2.523438 C 19.480469 1.480469 20.6875 0.925781 21.5 0.925781 C 21.773438 0.925781 22 0.988281 22.175781 1.113281 C 23.59375 2.132812 22.128906 7.5 17.761719 13.574219 C 16.957031 14.695312 16.140625 15.714844 15.335938 16.628906 C 15.335938 16.628906 15.332031 16.628906 15.332031 16.628906 C 15.242188 16.734375 15.152344 16.832031 15.0625 16.929688 C 14.914062 17.09375 14.769531 17.253906 14.621094 17.410156 C 14.515625 17.527344 14.40625 17.636719 14.296875 17.75 C 14.15625 17.894531 14.015625 18.039062 13.875 18.179688 C 13.78125 18.273438 13.6875 18.363281 13.597656 18.457031 C 13.402344 18.640625 13.214844 18.820312 13.027344 18.992188 C 12.988281 19.027344 12.945312 19.066406 12.90625 19.105469 C 12.671875 19.3125 12.445312 19.511719 12.222656 19.695312 C 12.15625 19.75 12.089844 19.800781 12.023438 19.855469 C 11.871094 19.980469 11.71875 20.101562 11.570312 20.214844 C 11.476562 20.285156 11.386719 20.351562 11.296875 20.417969 Z M 15.496094 22.929688 C 14.777344 23.382812 13.308594 22.78125 11.585938 21.355469 C 12.125 20.976562 12.679688 20.535156 13.238281 20.039062 C 13.390625 19.90625 13.546875 19.765625 13.703125 19.621094 C 13.738281 19.589844 13.773438 19.558594 13.808594 19.527344 C 14.363281 19.011719 14.925781 18.445312 15.492188 17.832031 C 15.625 18.265625 15.730469 18.675781 15.824219 19.074219 C 15.269531 19.257812 14.699219 19.558594 14.113281 19.984375 C 13.921875 20.125 13.867188 20.390625 13.992188 20.597656 L 14.980469 22.222656 C 15.054688 22.347656 15.179688 22.425781 15.324219 22.441406 C 15.339844 22.445312 15.355469 22.445312 15.375 22.445312 C 15.5 22.445312 15.617188 22.394531 15.707031 22.304688 C 15.8125 22.195312 15.917969 22.097656 16.027344 22.007812 C 15.945312 22.394531 15.789062 22.746094 15.496094 22.929688 Z M 18.5 20.347656 C 18.441406 20.34375 18.382812 20.335938 18.324219 20.332031 C 18.289062 20.332031 18.253906 20.332031 18.222656 20.328125 C 17.664062 20.308594 17.027344 20.394531 16.375 20.695312 C 16.359375 20.703125 16.347656 20.714844 16.332031 20.722656 C 16.042969 20.859375 15.757812 21.035156 15.476562 21.261719 L 15.007812 20.492188 C 15.53125 20.152344 16.03125 19.941406 16.503906 19.84375 C 16.605469 19.820312 16.703125 19.804688 16.796875 19.796875 C 16.816406 19.792969 16.832031 19.792969 16.847656 19.792969 C 16.945312 19.785156 17.039062 19.78125 17.128906 19.785156 C 17.136719 19.785156 17.148438 19.785156 17.15625 19.785156 C 17.253906 19.789062 17.347656 19.796875 17.4375 19.8125 C 17.441406 19.8125 17.445312 19.8125 17.445312 19.8125 C 17.542969 19.828125 17.632812 19.851562 17.722656 19.875 C 17.8125 19.902344 17.898438 19.929688 17.980469 19.964844 C 17.984375 19.96875 17.992188 19.972656 18 19.976562 C 18.074219 20.007812 18.144531 20.039062 18.210938 20.074219 C 18.261719 20.105469 18.308594 20.132812 18.355469 20.164062 C 18.378906 20.175781 18.398438 20.1875 18.421875 20.203125 C 18.492188 20.253906 18.5625 20.304688 18.628906 20.359375 C 18.585938 20.351562 18.542969 20.351562 18.5 20.347656 Z M 18.5 20.347656"/>
</svg>

<svg xmlns="http://www.w3.org/2000/svg" width="32" height="32" viewBox="0 0 24 24">
    <path d="M20.29 20.938a3.994 3.994 0 0 0-.724-.973l-.015-.016-.07-.066c-.395-.383-.926-.754-1.61-.926a3.331 3.331 0 0 0-1.082-.086c-.02.004-.039 0-.059.004-.132-.582-.316-1.2-.535-1.84a41.1 41.1 0 0 0 2.317-2.922c3.855-5.36 6.636-12 4.203-13.75-1.094-.785-2.883-.297-5.18 1.418-1.965 1.469-4.086 3.692-6.039 6.297 0 0-.004 0-.004-.004-.133-.187-.27-.375-.406-.562-1.379-1.895-2.824-3.535-4.215-4.77l-.148-.133-.02.004C4.633.813 2.68-.094 1.418.707.278 1.43.066 3.273.801 6.043c.02.086.05.176.078.266l-.004.007.055.196c.03.11.07.222.105.336.031.093.059.187.09.285.094.281.191.566.297.855.023.067.05.133.074.2a29.576 29.576 0 0 0 .473 1.164l.261.59.188.41c.11.226.219.457.332.683.086.168.168.336.258.504.125.242.25.484.383.73.078.141.156.286.238.426.058.11.117.215.176.32l.425.75.008-.015c.184.313.371.621.567.93a43.34 43.34 0 0 0 1.691 2.46c-.812 2.462-.867 4.477.32 5.333.348.25.762.367 1.223.367.793 0 1.73-.356 2.742-.961C12.406 23.269 13.832 24 14.926 24c.402 0 .758-.098 1.066-.293.64-.406.988-1.172 1.031-2.277.012-.004.024-.012.036-.016.023-.008.046-.012.07-.02.07-.023.144-.042.215-.062.05-.012.097-.02.144-.027.035-.008.07-.012.106-.02 1.136-.168 2.082.34 2.105.352.02.011.043.015.067.023a.457.457 0 0 0 .351-.008l.02-.011a.46.46 0 0 0 .203-.605c-.004-.009-.02-.044-.05-.099zM1.546 5.198c-.426-1.922-.297-3.293.363-3.71.164-.106.367-.157.602-.157.71 0 1.73.48 2.925 1.406L2.872 3zm2.64 6.598a24.19 24.19 0 0 1-.59-1.133c-.1-.203-.199-.402-.292-.601-.055-.11-.106-.223-.157-.333-.128-.273-.246-.546-.363-.816-.047-.11-.09-.215-.133-.324-.097-.23-.187-.461-.277-.692l-.074-.191a29.954 29.954 0 0 1-.285-.828c-.028-.082-.055-.16-.079-.238-.023-.07-.039-.137-.058-.204l1.543-2.566 2.988-.3C7.68 4.722 9 6.222 10.266 7.948l-4.196.102zm1.399 2.387c-.3-.473-.582-.942-.856-1.414l1.915-3.81 4.265-.105.008.008a1.245 1.245 0 0 0-.063.09c-.175.25-.351.5-.523.754-.062.094-.121.184-.184.277l-.304.461c-.164.254-.32.508-.477.762-.023.04-.05.082-.074.121a34.781 34.781 0 0 0-1.383 2.48c-.05.094-.098.192-.144.286-.059.125-.121.25-.18.37a23.71 23.71 0 0 0-.332.731c-.012.028-.027.055-.04.082-.12.278-.234.551-.339.82a39.896 39.896 0 0 1-1.29-1.913zm5.71 6.234c-.112.082-.226.16-.339.238-.105.074-.21.145-.316.211-1.496.969-2.684 1.29-3.286.856-.742-.535-.687-2.262.149-4.653.082-.234.168-.468.262-.71l.105-.255c.094-.222.188-.449.29-.68.042-.097.089-.195.136-.292.101-.227.207-.453.32-.684l.16-.312c.118-.23.235-.461.36-.692.058-.11.12-.218.183-.328.13-.23.258-.465.395-.699.07-.121.148-.246.223-.371a30.313 30.313 0 0 1 .734-1.172c.117-.18.23-.363.351-.543.239-.355.485-.71.747-1.07 2.023-2.817 4.27-5.207 6.316-6.739C19.48 1.48 20.688.926 21.5.926c.273 0 .5.062.676.187 1.418 1.02-.047 6.387-4.414 12.461a39.38 39.38 0 0 1-2.426 3.055h-.004c-.09.105-.18.203-.27.3-.148.165-.292.325-.44.481-.106.117-.216.227-.325.34-.14.145-.281.29-.422.43-.094.093-.188.183-.277.277-.196.184-.383.363-.57.535-.04.035-.083.074-.122.113-.234.207-.46.407-.683.59-.067.055-.133.106-.2.16-.152.125-.304.247-.453.36l-.273.203zm4.2 2.512c-.719.453-2.187-.149-3.91-1.575.539-.378 1.094-.82 1.652-1.316.153-.133.309-.273.465-.418l.106-.094a31.446 31.446 0 0 0 1.683-1.695c.133.434.238.844.332 1.242-.554.184-1.125.485-1.71.91a.464.464 0 0 0-.122.614l.988 1.625a.45.45 0 0 0 .344.218c.016.004.031.004.051.004.125 0 .242-.05.332-.14.105-.11.211-.207.32-.297-.082.387-.238.738-.53.922zm3.004-2.582c-.059-.004-.117-.012-.176-.016-.035 0-.07 0-.101-.004a4.038 4.038 0 0 0-1.848.367c-.016.008-.027.02-.043.028-.289.136-.574.312-.855.539l-.47-.77c.524-.34 1.024-.55 1.497-.648.101-.024.2-.04.293-.047.02-.004.035-.004.05-.004.098-.008.192-.012.282-.008h.027c.098.004.192.012.282.027h.007c.098.016.188.04.278.063a2.5 2.5 0 0 1 .257.09c.004.004.012.008.02.012.074.03.145.062.21.097.052.031.099.059.145.09a.588.588 0 0 1 .067.04c.07.05.14.1.207.155-.043-.007-.086-.007-.129-.011zm0 0"/>
</svg>
